X: 146
T:Les deux amants
M:6/8
L:1/8
Q:100
R:Branle
O:France
A:Flandre
K:F
F2GA2A|B2AF2F|c2B ABc|F3F2c|c2cd2c|B2BB3|
|:A2A ABA|G2GG3|
c2B ABc|1A3A3:|2F6||
W:
W: From "Falaleiro" http://home.t-online.de/home/pheld/homepage.htm
